X: 2
T: Pat d'Budgie
C: Graham Townsend 1961
I: R-106	C	reel
M: C|
R: reel
K: C
|:\
"C"CB,CE G3E | "F"FEFA "Dm"d3c |\
"G7"BcBA G2AB |1,3 "C"c2BA GFED :|2 "C"c2cB c2z2 :|4 "C"c2cB cd ||
|:\
"F"f2fe fga2 | "C"gage c2Bc |\
"G7"dedB G2AB |1 "C"c2cB cde2 :|2 "C"c2cB c3e |]
|:\
"C"g2z2 "F"a2z2 | "C"gage c2Bc |\
"G7"dedB G2AB |1 "C"c2cB cde2 :|2 "C"c2cB c2z2 |]


